apps/32/quiterss.svg

<?xml version="1.0" encoding="UTF-8" standalone="no"?>
<!-- Created with Inkscape (http://www.inkscape.org/) -->

<svg
   width="32"
   height="32"
   version="1.1"
   viewBox="0 0 32 32"
   id="svg22"
   xmlns:xlink="http://www.w3.org/1999/xlink"
   xmlns="http://www.w3.org/2000/svg"
   xmlns:svg="http://www.w3.org/2000/svg">
  <defs
     id="defs12">
    <linearGradient
       id="linearGradient1005-3-3"
       x1="5.2535"
       x2="9.3823996"
       y1="15.383"
       y2="2.9421"
       gradientTransform="matrix(0.99999,0,0,0.99999,1.632,-0.61743)"
       gradientUnits="userSpaceOnUse">
      <stop
         stop-color="#fa8200"
         offset="0"
         id="stop2" />
      <stop
         stop-color="#ff9600"
         offset=".36953"
         id="stop4" />
      <stop
         stop-color="#ffb400"
         offset="1"
         id="stop6" />
    </linearGradient>
    <filter
       id="filter4014"
       x="-0.062499933"
       y="-0.057692993"
       width="1.1249999"
       height="1.115386"
       color-interpolation-filters="sRGB">
      <feGaussianBlur
         stdDeviation="1.093751"
         id="feGaussianBlur9" />
    </filter>
    <linearGradient
       xlink:href="#linearGradient3487"
       id="linearGradient3403"
       gradientUnits="userSpaceOnUse"
       x1="6.9491749"
       y1="4.5549412"
       x2="11.215498"
       y2="59.052471" />
    <linearGradient
       id="linearGradient3487">
      <stop
         style="stop-color:#32373c;stop-opacity:1"
         offset="0"
         id="stop3481" />
      <stop
         id="stop3483"
         offset="0.36804965"
         style="stop-color:#1a1a1a;stop-opacity:1" />
      <stop
         style="stop-color:#31363b;stop-opacity:1"
         offset="1"
         id="stop3485" />
    </linearGradient>
    <linearGradient
       xlink:href="#linearGradient20604"
       id="linearGradient20558"
       gradientUnits="userSpaceOnUse"
       x1="25.802212"
       y1="20.373846"
       x2="25.111048"
       y2="58.912758" />
    <linearGradient
       id="linearGradient20604">
      <stop
         id="stop20598"
         offset="0"
         style="stop-color:#3d3d3d;stop-opacity:1" />
      <stop
         style="stop-color:#000000;stop-opacity:1"
         offset="0.61772454"
         id="stop20600" />
      <stop
         id="stop20602"
         offset="1"
         style="stop-color:#3d3d3d;stop-opacity:1" />
    </linearGradient>
    <filter
       style="color-interpolation-filters:sRGB"
       id="filter20720"
       x="-0.017024755"
       y="-0.016457183"
       width="1.0340491"
       height="1.0329144">
      <feGaussianBlur
         stdDeviation="0.14745661"
         id="feGaussianBlur20722" />
    </filter>
    <linearGradient
       gradientTransform="translate(0.36067797,-0.13016949)"
       xlink:href="#linearGradient4555"
       id="linearGradient4557"
       x1="43.499737"
       y1="64.011795"
       x2="44.141731"
       y2="0.30621234"
       gradientUnits="userSpaceOnUse" />
    <linearGradient
       id="linearGradient4555">
      <stop
         style="stop-color:#141618;stop-opacity:1"
         offset="0"
         id="stop4551" />
      <stop
         id="stop4559"
         offset="0.51820582"
         style="stop-color:#686868;stop-opacity:1" />
      <stop
         style="stop-color:#31363b;stop-opacity:1"
         offset="1"
         id="stop4553" />
    </linearGradient>
    <filter
       style="color-interpolation-filters:sRGB"
       id="filter4601"
       x="-0.030244955"
       width="1.0604899"
       y="-0.030100647"
       height="1.0602013">
      <feGaussianBlur
         stdDeviation="0.014790289"
         id="feGaussianBlur4603" />
    </filter>
    <linearGradient
       gradientTransform="translate(0.36135313,-0.12490449)"
       xlink:href="#linearGradient4585"
       id="linearGradient4587-3"
       x1="11.086592"
       y1="53.859512"
       x2="35.057411"
       y2="5.1285472"
       gradientUnits="userSpaceOnUse" />
    <linearGradient
       id="linearGradient4585">
      <stop
         style="stop-color:#51a639;stop-opacity:1"
         offset="0"
         id="stop4581" />
      <stop
         style="stop-color:#c1cd5a;stop-opacity:1"
         offset="1"
         id="stop4583" />
    </linearGradient>
    <linearGradient
       gradientUnits="userSpaceOnUse"
       y2="518.59198"
       x2="421.56601"
       y1="507.798"
       x1="416.57101"
       id="linearGradient4202"
       xlink:href="#linearGradient4167" />
    <linearGradient
       id="linearGradient4167">
      <stop
         id="stop7664"
         style="stop-color:#fff8ac;stop-opacity:1"
         offset="0" />
      <stop
         id="stop7666"
         style="stop-color:#f6bf3a;stop-opacity:1"
         offset="1" />
    </linearGradient>
    <linearGradient
       gradientUnits="userSpaceOnUse"
       y2="35"
       x2="30"
       y1="14"
       x1="9"
       id="linearGradient4229"
       xlink:href="#linearGradient4223" />
    <linearGradient
       id="linearGradient4223">
      <stop
         id="stop7654"
         offset="0"
         style="stop-color:#000000;stop-opacity:1;" />
      <stop
         id="stop7656"
         offset="1"
         style="stop-color:#000000;stop-opacity:0;" />
    </linearGradient>
  </defs>
  <g
     id="g883"
     transform="matrix(0.44042772,0,0,0.44042773,2.1929125,1.4148002)">
    <rect
       style="opacity:1;fill:url(#linearGradient4587-3);fill-opacity:1;stroke:none;stroke-width:1.146;stroke-linejoin:round;stroke-miterlimit:7.8;stroke-dasharray:none;stroke-opacity:0.995146"
       id="rect4539-1"
       width="62.567139"
       height="62.866646"
       x="1.033034"
       y="0.60077608" />
    <g
       id="g7692"
       transform="matrix(1.33,0,0,1.33,-505.88417,-663.52835)">
      <path
         id="path7678"
         d="m 419.57143,517.22657 3.708,2.57143 -0.981,-4.71429 3.273,-3.28571 h -4.314 l -1.686,-4 -1.686,4 h -4.314 l 3.273,3.28571 -0.98101,4.71429 z"
         style="opacity:0.1;fill:#000000;fill-opacity:1" />
      <path
         id="path7680"
         style="opacity:1;fill:url(#linearGradient4202);fill-opacity:1"
         d="m 419.57143,516.22657 3.708,2.57143 -0.981,-4.71429 3.273,-3.28571 h -4.314 l -1.686,-4 -1.686,4 h -4.314 l 3.273,3.28571 -0.98101,4.71429 z" />
      <path
         id="path7682"
         transform="translate(384.57143,499.798)"
         d="m 18.404297,13.851562 -8.4179689,3.103516 6.9160159,6.916016 -6.865235,3.160156 4.777344,4.777344 -4.123047,4.125 L 18.757812,44 H 41 c 1.662,0 3,-1.338 3,-3 V 33.902344 L 28.037109,17.939453 Z"
         style="opacity:0.25;fill:url(#linearGradient4229);fill-opacity:1;stroke:none;stroke-width:2;stroke-linecap:round;stroke-linejoin:round;stroke-miterlimit:4;stroke-dasharray:none;stroke-opacity:1" />
      <g
         id="g7690"
         transform="translate(382.57143,499.798)">
        <circle
           id="circle7684"
           style="opacity:1;fill:#f9f9f9;fill-opacity:1;stroke:none"
           cx="15"
           cy="34"
           r="3" />
        <path
           id="path7686"
           style="opacity:1;fill:#f9f9f9;fill-opacity:1;stroke:none"
           d="m 12,22 v 5 h 2.5 c 4.142,0 7.5,3.358 7.5,7.5 V 37 h 5 V 34.5 C 27,27.596 21.404,22 14.5,22" />
        <path
           id="path7688"
           style="opacity:1;fill:#f9f9f9;fill-opacity:1;stroke:none"
           d="m 12,12 v 5 h 3 a 17,17 0 0 1 17,17 v 3 h 5 V 34 A 22,22 0 0 0 15,12 Z" />
      </g>
    </g>
  </g>
  <path
     style="display:inline;mix-blend-mode:normal;fill:url(#linearGradient3403);fill-opacity:1;stroke:url(#linearGradient20558);stroke-width:1.16242;stroke-linecap:butt;stroke-linejoin:round;stroke-miterlimit:4;stroke-dasharray:none;stroke-opacity:1;filter:url(#filter20720)"
     d="M 4.7043071,3.9814882 4.6913695,60.80196 H 58.59546 l 1.022155,-2.866369 c 0,0 -23.87537,0.766388 -32.844441,-4.140386 C 16.257548,48.042344 11.401114,4.0978197 11.401114,4.0978197 Z"
     id="path1686"
     transform="matrix(0.5,0,0,0.5,0.06630362,0.01654936)" />
  <rect
     style="display:inline;fill:none;fill-opacity:1;stroke:url(#linearGradient4557);stroke-width:3.71366;stroke-linejoin:round;stroke-miterlimit:7.8;stroke-dasharray:none;stroke-opacity:0.995146;filter:url(#filter4601)"
     id="rect4539"
     width="62.566689"
     height="62.866646"
     x="1.0323594"
     y="0.59551275"
     ry="6.2447233"
     rx="5.8029528"
     transform="matrix(0.46839137,0,0,0.46743669,0.90638486,1.0268972)" />
</svg>

<svg width="32" height="32" version="1.1" viewBox="0 0 32 32" xmlns="http://www.w3.org/2000/svg" xmlns:xlink="http://www.w3.org/1999/xlink">
<defs>
<linearGradient id="linearGradient3403" x1="6.9492" x2="11.215" y1="4.5549" y2="59.052" gradientUnits="userSpaceOnUse">
<stop style="stop-color:#32373c" offset="0"/>
<stop style="stop-color:#1a1a1a" offset=".36805"/>
<stop style="stop-color:#31363b" offset="1"/>
</linearGradient>
<linearGradient id="linearGradient20558" x1="25.802" x2="25.111" y1="20.374" y2="58.913" gradientUnits="userSpaceOnUse">
<stop style="stop-color:#3d3d3d" offset="0"/>
<stop offset=".61772"/>
<stop style="stop-color:#3d3d3d" offset="1"/>
</linearGradient>
<linearGradient id="linearGradient4557" x1="43.5" x2="44.142" y1="64.012" y2=".30621" gradientTransform="translate(.36068 -.13017)" gradientUnits="userSpaceOnUse">
<stop style="stop-color:#141618" offset="0"/>
<stop style="stop-color:#686868" offset=".51821"/>
<stop style="stop-color:#31363b" offset="1"/>
</linearGradient>
<linearGradient id="linearGradient4587-3" x1="11.087" x2="35.057" y1="53.86" y2="5.1285" gradientTransform="translate(.36135 -.1249)" gradientUnits="userSpaceOnUse">
<stop style="stop-color:#51a639" offset="0"/>
<stop style="stop-color:#c1cd5a" offset="1"/>
</linearGradient>
<linearGradient id="linearGradient4202" x1="416.57" x2="421.57" y1="507.8" y2="518.59" gradientUnits="userSpaceOnUse">
<stop style="stop-color:#fff8ac" offset="0"/>
<stop style="stop-color:#f6bf3a" offset="1"/>
</linearGradient>
<linearGradient id="linearGradient4229" x1="9" x2="30" y1="14" y2="35" gradientUnits="userSpaceOnUse">
<stop offset="0"/>
<stop style="stop-opacity:0" offset="1"/>
</linearGradient>
</defs>
<g transform="matrix(.44043 0 0 .44043 2.1929 1.4148)">
<rect x="1.033" y=".60078" width="62.567" height="62.867" style="fill:url(#linearGradient4587-3)"/>
<g transform="matrix(1.33 0 0 1.33 -505.88 -663.53)">
<path d="m419.57 517.23 3.708 2.5714-0.981-4.7143 3.273-3.2857h-4.314l-1.686-4-1.686 4h-4.314l3.273 3.2857-0.98101 4.7143z" style="opacity:.1"/>
<path d="m419.57 516.23 3.708 2.5714-0.981-4.7143 3.273-3.2857h-4.314l-1.686-4-1.686 4h-4.314l3.273 3.2857-0.98101 4.7143z" style="fill:url(#linearGradient4202)"/>
<path transform="translate(384.57 499.8)" d="m18.404 13.852-8.418 3.1035 6.916 6.916-6.8652 3.1602 4.7773 4.7773-4.123 4.125 8.0664 8.0664h22.242c1.662 0 3-1.338 3-3v-7.0977l-15.963-15.963z" style="fill:url(#linearGradient4229);opacity:.25"/>
<g transform="translate(382.57 499.8)">
<circle cx="15" cy="34" r="3" style="fill:#f9f9f9"/>
<path d="m12 22v5h2.5c4.142 0 7.5 3.358 7.5 7.5v2.5h5v-2.5c0-6.904-5.596-12.5-12.5-12.5" style="fill:#f9f9f9"/>
<path d="m12 12v5h3a17 17 0 0 1 17 17v3h5v-3a22 22 0 0 0-22-22z" style="fill:#f9f9f9"/>
</g>
</g>
</g>
<path transform="matrix(.5 0 0 .5 .066304 .016549)" d="m4.7043 3.9815-0.012938 56.82h53.904l1.0222-2.8664s-23.875 0.76639-32.844-4.1404c-10.516-5.7529-15.372-49.697-15.372-49.697z" style="fill:url(#linearGradient3403);mix-blend-mode:normal;stroke-linejoin:round;stroke-width:1.1624;stroke:url(#linearGradient20558)"/>
<rect transform="matrix(.46839 0 0 .46744 .90638 1.0269)" x="1.0324" y=".59551" width="62.567" height="62.867" rx="5.803" ry="6.2447" style="fill:none;stroke-linejoin:round;stroke-miterlimit:7.8;stroke-opacity:.99515;stroke-width:3.7137;stroke:url(#linearGradient4557)"/>
</svg>
